icon/gr/grow.svg

<svg xmlns="http://www.w3.org/2000/svg" width="24" height="24"><path fill="none" stroke="#000" stroke-width="2" d="M12 16V7m0 4c0-3 0-6-7-6 0 3 0 6 7 6Zm-8 5h16m-2 0-2 7H8l-2-7m6-9c0-3 0-6 7-6 0 3 0 6-7 6Z"/></svg>

<svg xmlns="http://www.w3.org/2000/svg" viewBox="0 0 24 24" height="1em" width="1em">
  <path fill="none" stroke="#000" stroke-width="2" d="M12,16 L12,7 M12.0000002,11 C12,8 12,5 5,5 C5,8 5,11 12.0000002,11 Z M4,16 L20,16 M18,16 L16,23 L8,23 L6,16 L6,16 M12,7 C12,4 12,1 19,1 C19,4 19,7 12,7 Z"/>
</svg>
